packages/stems/src/assets/icons/iconCampFire.svg

<?xml version="1.0" encoding="UTF-8"?>
<svg width="24px" height="24px" viewBox="0 0 24 24" version="1.1" xmlns="http://www.w3.org/2000/svg" xmlns:xlink="http://www.w3.org/1999/xlink">
    <title>icon/CampFire</title>
    <g id="Symbols" stroke="none" stroke-width="1" fill="none" fill-rule="evenodd">
        <g id="icon/CampFire" fill="#FFFFFF" fill-rule="nonzero">
            <path d="M22.7481385,15.4277275 C22.9503019,16.1932649 22.5459751,16.9574669 21.804278,17.1661285 L16.969,18.592 L21.804278,20.0182813 C22.5459751,20.2269428 22.9503019,20.9924803 22.7481385,21.7566823 C22.6129413,22.3826669 22.0746918,22.8 21.4682016,22.8 C21.3330044,22.8 21.199072,22.8 21.0638748,22.7308813 L12,20.057 L2.93612521,22.7308813 C2.80219276,22.8 2.66699559,22.8 2.53179841,22.8 C1.9253082,22.8 1.38577452,22.3826669 1.25186148,21.7566823 C1.04969808,20.9911448 1.45402488,20.2269428 2.19572197,20.0182813 L7.03,18.592 L2.19572197,17.1661285 C1.45402488,16.9574669 1.04969808,16.1919295 1.25186148,15.4277275 C1.45402488,14.66219 2.19572197,14.2448669 2.93612521,14.4535285 L12,17.126 L21.0638748,14.4535285 C21.8055719,14.2448669 22.5459751,14.66219 22.7481385,15.4277275 Z M12.6866548,1.2 C12.6853687,1.20128596 16.8,3.25842651 16.8,10.8004389 C16.8,13.4747246 14.6745302,15.6 12,15.6 C9.32546976,15.6 7.2,13.4747246 7.2,10.8004389 C7.2,7.09758171 9.25733096,4.62901029 9.25733096,4.62901029 C12.8923879,8.26373486 13.6458648,4.56086784 12.6866548,1.2 Z" id="Combined-Shape"></path>
        </g>
    </g>
</svg>

<svg width="24" height="24" xmlns="http://www.w3.org/2000/svg"><path d="M22.748 15.428c.202.765-.202 1.53-.944 1.738l-4.835 1.426 4.835 1.426c.742.209 1.146.974.944 1.739a1.307 1.307 0 01-1.28 1.043c-.135 0-.269 0-.404-.07L12 20.058l-9.064 2.674c-.134.069-.269.069-.404.069a1.306 1.306 0 01-1.28-1.043c-.202-.766.202-1.53.944-1.739l4.834-1.426-4.834-1.426c-.742-.209-1.146-.974-.944-1.738.202-.766.944-1.183 1.684-.974L12 17.126l9.064-2.672c.742-.21 1.482.208 1.684.974zM12.687 1.2c-.002.001 4.113 2.058 4.113 9.6a4.77 4.77 0 01-4.8 4.8 4.77 4.77 0 01-4.8-4.8c0-3.702 2.057-6.171 2.057-6.171 3.635 3.635 4.389-.068 3.43-3.429z" fill="#FFF" fill-rule="nonzero"/></svg>
